package/converter/svg/light/list-check.svg

<svg xmlns="http://www.w3.org/2000/svg" viewBox="0 0 512 512"><!-- Font Awesome Pro 6.0.0-alpha2 by @fontawesome - https://fontawesome.com License - https://fontawesome.com/license (Commercial License) --><path d="M48.188 384C30.664 384 16 398.375 16 416S30.664 448 48.188 448C65.834 448 80 433.625 80 416S65.834 384 48.188 384ZM208 112H496C504.801 112 512 104.799 512 96C512 87.199 504.801 80 496 80H208C199.201 80 192 87.199 192 96C192 104.799 199.201 112 208 112ZM496 240H208C199.201 240 192 247.199 192 256C192 264.799 199.201 272 208 272H496C504.801 272 512 264.799 512 256C512 247.199 504.801 240 496 240ZM496 400H176C167.201 400 160 407.199 160 416C160 424.799 167.201 432 176 432H496C504.801 432 512 424.799 512 416C512 407.199 504.801 400 496 400ZM131.722 197.739L61.936 281.465L26.246 251.697C19.496 246.103 9.401 246.946 3.714 253.744C-1.943 260.541 -1.037 270.636 5.745 276.293L53.748 316.297C56.748 318.781 60.374 320 63.999 320C68.562 320 73.125 318.047 76.281 314.249L156.286 218.241C161.943 211.443 161.037 201.348 154.255 195.692C147.505 190.097 137.379 190.926 131.722 197.739ZM131.722 37.734L61.936 121.464L26.246 91.694C19.496 86.1 9.401 86.943 3.714 93.741C-1.943 100.539 -1.037 110.634 5.745 116.291L53.748 156.296C56.748 158.781 60.374 160 63.999 160C68.562 160 73.125 158.047 76.281 154.249L156.286 58.237C161.943 51.439 161.037 41.344 154.255 35.687C147.505 30.092 137.379 30.936 131.722 37.734Z"/></svg>

<svg xmlns="http://www.w3.org/2000/svg" viewBox="0 0 512 512"><!--! Font Awesome Pro 6.6.0 by @fontawesome - https://fontawesome.com License - https://fontawesome.com/license (Commercial License) Copyright 2024 Fonticons, Inc. --><path d="M156.3 58.2c5.7-6.8 4.7-16.9-2-22.5s-16.9-4.7-22.5 2L62.9 120.3 27.3 84.7c-6.2-6.2-16.4-6.2-22.6 0s-6.2 16.4 0 22.6l48 48c3.2 3.2 7.5 4.9 12 4.7s8.7-2.3 11.6-5.7l80-96zm0 160c5.7-6.8 4.7-16.9-2-22.5s-16.9-4.7-22.5 2L62.9 280.3 27.3 244.7c-6.2-6.2-16.4-6.2-22.6 0s-6.2 16.4 0 22.6l48 48c3.2 3.2 7.5 4.9 12 4.7s8.7-2.3 11.6-5.7l80-96zM192 96c0 8.8 7.2 16 16 16l288 0c8.8 0 16-7.2 16-16s-7.2-16-16-16L208 80c-8.8 0-16 7.2-16 16zm0 160c0 8.8 7.2 16 16 16l288 0c8.8 0 16-7.2 16-16s-7.2-16-16-16l-288 0c-8.8 0-16 7.2-16 16zM160 416c0 8.8 7.2 16 16 16l320 0c8.8 0 16-7.2 16-16s-7.2-16-16-16l-320 0c-8.8 0-16 7.2-16 16zm-64 0a32 32 0 1 0 -64 0 32 32 0 1 0 64 0z"/></svg>
